src/img/icons/status-information.svg

<svg width="32" height="32" viewBox="0 0 32 32" fill="none" xmlns="http://www.w3.org/2000/svg">
<path d="M16.0026 30C14.0662 30 12.246 29.6326 10.5422 28.8977C8.83839 28.1628 7.35635 27.1655 6.09611 25.9057C4.83586 24.646 3.83805 23.1646 3.10268 21.4615C2.36756 19.7584 2 17.9388 2 16.0026C2 14.0662 2.36744 12.246 3.10232 10.5422C3.83719 8.83839 4.83451 7.35635 6.09426 6.09611C7.35402 4.83586 8.83544 3.83805 10.5385 3.10268C12.2416 2.36756 14.0612 2 15.9974 2C17.9338 2 19.754 2.36744 21.4578 3.10232C23.1616 3.83719 24.6437 4.83451 25.9039 6.09426C27.1641 7.35402 28.1619 8.83544 28.8973 10.5385C29.6324 12.2416 30 14.0612 30 15.9974C30 17.9338 29.6326 19.754 28.8977 21.4578C28.1628 23.1616 27.1655 24.6437 25.9057 25.9039C24.646 27.1641 23.1646 28.1619 21.4615 28.8973C19.7584 29.6324 17.9388 30 16.0026 30Z" fill="#0085B3"/>
<path d="M14.931 14.431C15.218 14.1437 15.5742 14 15.9995 14C16.4245 14 16.7808 14.1437 17.0685 14.431C17.3562 14.7187 17.5 15.075 17.5 15.5L17.4995 23.5005C17.4995 23.9255 17.3558 24.2817 17.0685 24.569C16.7815 24.8567 16.4253 25.0005 16 25.0005C15.575 25.0005 15.2187 24.8567 14.931 24.569C14.6433 24.2817 14.4995 23.9255 14.4995 23.5005L14.5 15.5C14.5 15.075 14.6437 14.7187 14.931 14.431Z" fill="white"/>
<path d="M16 7.50055C15.5042 7.50055 15.0886 7.66827 14.7532 8.00372C14.4177 8.33917 14.25 8.75478 14.25 9.25055C14.25 9.74632 14.4177 10.1619 14.7532 10.4974C15.0886 10.8325 15.5042 11 16 11C16.4958 11 16.9114 10.8325 17.2468 10.4974C17.5823 10.1619 17.75 9.74632 17.75 9.25055C17.75 8.75478 17.5823 8.33917 17.2468 8.00372C16.9114 7.66827 16.4958 7.50055 16 7.50055Z" fill="white"/>
</svg>

<svg xmlns="http://www.w3.org/2000/svg" width="32" height="32" fill="none" viewBox="0 0 32 32">
  <path fill="#0085B3" d="M16.003 30c-1.937 0-3.757-.367-5.46-1.102a14.14 14.14 0 0 1-4.447-2.992 14.138 14.138 0 0 1-2.993-4.444C2.368 19.758 2 17.939 2 16.002c0-1.936.367-3.756 1.102-5.46a14.14 14.14 0 0 1 2.992-4.446 14.14 14.14 0 0 1 4.445-2.993C12.242 2.368 14.06 2 15.997 2c1.937 0 3.757.367 5.46 1.102a14.14 14.14 0 0 1 4.447 2.992 14.14 14.14 0 0 1 2.993 4.445C29.632 12.242 30 14.06 30 15.997c0 1.937-.367 3.757-1.102 5.46a14.14 14.14 0 0 1-2.992 4.447 14.14 14.14 0 0 1-4.444 2.993c-1.704.735-3.523 1.103-5.46 1.103Z"/>
  <path fill="#fff" d="M14.931 14.431A1.45 1.45 0 0 1 16 14c.424 0 .78.144 1.069.431.287.288.431.644.431 1.069v8c0 .425-.144.782-.431 1.069A1.449 1.449 0 0 1 16 25a1.45 1.45 0 0 1-1.069-.431A1.45 1.45 0 0 1 14.5 23.5v-8c0-.425.144-.781.431-1.069ZM16 7.5c-.496 0-.911.168-1.247.504a1.693 1.693 0 0 0-.503 1.247c0 .495.168.91.503 1.246.336.335.751.503 1.247.503.496 0 .911-.168 1.247-.503.335-.335.503-.75.503-1.246s-.168-.912-.503-1.247A1.693 1.693 0 0 0 16 7.5Z"/>
</svg>
